X: 30011
T: Off She Goes
R: jig
M: 6/8
K: Gmajor
|:B2 d c2 e|def g2 d|B2 d c2 e|dcB A3|
B2 d c2 e|def g3|B2 G c2 B|AGF G3:|
|:B2 d B2 G|[M:9/8] A2 B c2 e c2 A|[M:6/8] B2 d B2 G|A2 F D3|
(B2 d) B2 G|[M:9/8] A2 B c2 e c2 A|[M:6/8] B2 d B2 g|A3 G3:|

